svgs/solid/virus-slash.svg

<svg xmlns="http://www.w3.org/2000/svg" viewBox="0 0 640 512"><!--! Font Awesome Pro 6.0.0-alpha3 by @fontawesome - https://fontawesome.com License - https://fontawesome.com/license (Commercial License) --><path d="M113.1 227.6H92.44c-15.72 0-28.45 12.72-28.45 28.45s12.72 28.44 28.45 28.44h21.55c50.68 0 76.06 61.28 40.23 97.11l-15.25 15.25c-11.11 11.11-11.11 29.11-.0006 40.22c5.555 5.555 12.83 8.332 20.11 8.332c7.277 0 14.55-2.779 20.11-8.334l15.24-15.25c35.84-35.84 97.12-10.45 97.12 40.23v21.55c0 15.72 12.72 28.45 28.45 28.45c15.72 0 28.45-12.72 28.45-28.45v-21.55c0-30.08 21.69-50.85 46.74-55.6L150 214.3C140.5 222.2 128.5 227.6 113.1 227.6zM630.8 469.1l-161.2-126.4c-.5176-29.6 21.73-58.3 56.41-58.3h21.55c15.72 0 28.45-12.72 28.45-28.44s-12.72-28.45-28.45-28.45h-21.55c-50.68 0-76.06-61.28-40.23-97.11l15.25-15.25c11.11-11.11 11.11-29.11 .0011-40.22c-11.11-11.11-29.11-11.11-40.22 .0007l-15.24 15.24c-35.84 35.84-97.12 10.46-97.12-40.23V28.44C348.4 12.72 335.7 0 319.1 0C304.3 0 291.6 12.72 291.6 28.44v21.55c0 50.68-61.28 76.06-97.12 40.23L179.2 74.97c-11.11-11.11-29.11-11.11-40.22 0C137.3 76.63 136.2 78.61 135 80.53L38.81 5.112C34.41 1.675 29.19 0 24.03 0C16.91 0 9.845 3.159 5.126 9.19C-3.061 19.63-1.248 34.72 9.189 42.89l591.1 463.1c10.5 8.203 25.56 6.328 33.69-4.078C643.1 492.4 641.2 477.3 630.8 469.1zM334.1 236.6L264.6 182.1c6.904-3.885 14.86-6.109 23.36-6.109c26.51 0 47.1 21.49 47.1 47.1C335.1 228.4 335.2 232.5 334.1 236.6z"/></svg>

<svg xmlns="http://www.w3.org/2000/svg" viewBox="0 0 640 512"><!-- Font Awesome Pro 6.0.0-alpha2 by @fontawesome - https://fontawesome.com License - https://fontawesome.com/license (Commercial License) --><path d="M113.991 227.551H92.444C76.722 227.551 63.999 240.274 63.999 255.996S76.722 284.439 92.444 284.439H113.991C164.672 284.439 190.055 345.715 154.217 381.553L138.971 396.799C127.86 407.91 127.86 425.91 138.971 437.021C144.526 442.575 151.803 445.355 159.083 445.355C166.36 445.355 173.637 442.575 179.194 437.021L194.438 421.775C230.276 385.937 291.553 411.32 291.553 462.001V483.547C291.553 499.27 304.275 511.992 319.998 511.992S348.443 499.27 348.443 483.547V462.001C348.443 431.917 370.137 411.15 395.183 406.408L150.024 214.258C140.516 222.225 128.456 227.551 113.991 227.551ZM630.811 469.102L469.595 342.745C469.078 313.148 491.327 284.439 526.005 284.439H547.552C563.274 284.439 575.997 271.719 575.997 255.996S563.274 227.551 547.552 227.551H526.005C475.324 227.551 449.941 166.275 485.779 130.437L501.025 115.192C512.136 104.08 512.136 86.081 501.025 74.972C489.913 63.86 471.913 63.86 460.802 74.972L445.558 90.215C409.72 126.053 348.443 100.672 348.443 49.989V28.443C348.443 12.722 335.721 0 319.998 0S291.553 12.722 291.553 28.443V49.989C291.553 100.672 230.276 126.053 194.438 90.215L179.194 74.972C168.083 63.86 150.083 63.86 138.971 74.972C137.309 76.634 136.12 78.552 134.966 80.471L38.814 5.109C34.407 1.672 29.189 0 24.032 0C16.907 0 9.845 3.156 5.126 9.187C-3.061 19.625 -1.249 34.718 9.189 42.89L601.186 506.883C611.686 515.086 626.749 513.211 634.874 502.805C643.061 492.367 641.249 477.274 630.811 469.102ZM334.117 236.561L264.641 182.107C271.545 178.222 279.502 175.997 287.998 175.997C314.508 175.997 335.998 197.487 335.998 223.997C335.998 228.375 335.219 232.534 334.117 236.561Z"/></svg>
